assets/fonts/svg-files-for-custom-font/facebook.svg

<svg enable-background="new 0 0 20 20" viewBox="0 0 20 20" xmlns="http://www.w3.org/2000/svg"><path d="m17 1h-14c-1.1 0-2 .9-2 2v14c0 1.101.9 2 2 2h7v-7h-2v-2.475h2v-2.05c0-2.164 1.212-3.684 3.766-3.684l1.803.002v2.605h-1.197c-.994 0-1.372.746-1.372 1.438v1.69h2.568l-.568 2.474h-2v7h4c1.1 0 2-.899 2-2v-14c0-1.1-.9-2-2-2z"/></svg>

<?xml version="1.0" encoding="utf-8"?>
<!-- Generator: Adobe Illustrator 18.1.1, SVG Export Plug-In . SVG Version: 6.00 Build 0)  -->
<!DOCTYPE svg PUBLIC "-//W3C//DTD SVG 1.1//EN" "http://www.w3.org/Graphics/SVG/1.1/DTD/svg11.dtd">
<svg version="1.1" id="Facebook" xmlns="http://www.w3.org/2000/svg" xmlns:xlink="http://www.w3.org/1999/xlink" x="0px" y="0px"
	 viewBox="0 0 20 20" enable-background="new 0 0 20 20" xml:space="preserve">
<path d="M17,1H3C1.9,1,1,1.9,1,3v14c0,1.101,0.9,2,2,2h7v-7H8V9.525h2V7.475c0-2.164,1.212-3.684,3.766-3.684l1.803,0.002v2.605
	h-1.197C13.378,6.398,13,7.144,13,7.836v1.69h2.568L15,12h-2v7h4c1.1,0,2-0.899,2-2V3C19,1.9,18.1,1,17,1z"/>
</svg>
